outputs/icons/enterprise/zero_scale_sharp.svg

<svg xmlns="http://www.w3.org/2000/svg" width="1200" height="1200" fill="none"><path fill="#000" fill-rule="evenodd" d="M599.705 250c37.77-.012 72.055 5.512 102.835 16.553a187.9 187.9 0 0 1 78.955 53.906c21.845 24.882 38.735 57.395 50.635 97.51 11.895 40.113 17.82 89.071 17.82 146.876v117.82c-.01 57.81-5.94 106.855-17.82 147.12-11.89 40.27-28.665 73.055-50.345 98.29a188.56 188.56 0 0 1-78.465 54.885C672.7 994.325 638.49 1000 600.73 1000c-37.425 0-71.53-5.675-102.292-17.04a191.9 191.9 0 0 1-79.2-54.885c-22.057-25.245-39.114-58.03-51.172-98.29-12.053-40.255-18.114-89.29-18.115-147.12v-117.82c-.013-57.835 5.973-106.788 17.871-146.876 11.899-40.083 28.744-72.603 50.586-97.51 21.234-24.476 48.475-43.046 79.004-53.906C528.19 255.528 562.29 250 599.705 250m0 97.754c-19.575.013-36.975 3.458-52.195 10.303-15.215 6.847-28.095 18.018-38.575 33.544-10.48 15.546-18.447 35.951-23.877 61.182-5.429 25.234-8.153 56.412-8.153 93.507v153.905q.02 55.155 8.397 93.75c5.612 25.69 13.689 46.6 24.173 62.695 10.475 16.085 23.42 27.815 38.815 35.155a120.4 120.4 0 0 0 52.44 10.99c19.95.05 37.465-3.59 52.495-10.99 15.02-7.39 27.7-19.12 38.035-35.155 10.39-16.055 18.18-36.965 23.39-62.695q7.809-38.595 7.81-93.75V546.29c.015-37.095-2.675-68.273-8.105-93.507-5.43-25.23-13.395-45.636-23.875-61.182-10.44-15.512-23.31-26.685-38.575-33.544-15.27-6.862-32.67-10.302-52.2-10.303"/><path fill="#000" d="M287.5 625 100 812.5v-375zM1099.95 812.5 912.45 625l187.5-187.5z"/></svg>

<svg width="1200" height="1200" viewBox="0 0 1200 1200" fill="none" xmlns="http://www.w3.org/2000/svg"><path fill-rule="evenodd" d="M702.53 266.543C733.06 277.404 760.26 295.974 781.495 320.45C803.345 345.332 820.22 377.832 832.12 417.949C844.02 458.066 849.97 507.03 849.97 564.845V682.655C849.96 740.48 844.01 789.53 832.12 829.805C820.23 870.08 803.45 902.83 781.77 928.065C760.78 952.805 733.765 971.71 703.33 982.95C672.705 994.315 638.515 1000 600.75 1000C563.32 1000 529.215 994.315 498.448 982.95C467.803 971.69 440.536 952.805 419.229 928.065C397.172 902.82 380.115 870.065 368.058 829.805C356 789.545 349.971 740.495 349.971 682.655V564.845C349.959 507.005 355.903 458.041 367.803 417.949C379.704 377.858 396.579 345.358 418.428 320.45C439.663 295.974 466.864 277.404 497.394 266.543C528.175 255.514 562.275 250 599.7 250C637.47 249.987 671.75 255.501 702.53 266.543ZM714.66 793.945C719.865 768.215 722.47 736.965 722.47 700.195V546.29C722.485 509.195 719.775 478.027 714.345 452.793C708.915 427.559 700.96 407.168 690.48 391.621C680.035 376.101 667.18 364.909 651.905 358.047C636.63 351.185 619.23 347.754 599.7 347.754C580.115 347.767 562.71 351.198 547.49 358.047C532.27 364.896 519.42 376.087 508.935 391.621C498.454 407.168 490.498 427.559 485.069 452.793C479.639 478.027 476.924 509.195 476.924 546.29V700.195C476.938 736.965 479.737 768.215 485.323 793.945C490.935 819.635 498.981 840.53 509.465 856.62C519.945 872.715 532.89 884.435 548.29 891.78C564.73 899.345 582.66 903.11 600.75 902.795C620.7 902.845 638.19 899.175 653.215 891.78C668.24 884.38 680.92 872.665 691.26 856.62C701.65 840.565 709.45 819.675 714.66 793.945ZM100 812.5L287.5 625L100 437.5V812.5ZM912.47 625L1099.97 812.5V437.5L912.47 625Z" fill="#1D1E23"/></svg>
